!!!COM: Felix Mendelssohn
!!!CNT: Deutsch
!!!TXO: Deutsch
!!!OTL: Schilflied
!!!LYR: Lenau
!!!OPS: Op. 71
!!!ONM: No. 4
!!!ENC: Daniel Alt & Leigh VanHandel
!!!YOR: Sa2mmtliche Lieder fu2r eine Singstimme
!!!YOR: Neu revidirt von Dr. L. Benda, Ausgabe fu2r mittlere Stimme
!!!YOR: Braunschweig. Henry Litolff's Verlag. Boston and New York: Arthur P. Schmidt.
!!!ODT: 1842/
**kern	**silbe
*staff1	*
=1-	=1
*clefG2	*
*k[f#c#g#]	*
*M6/8	*
2.r	.
=2	=2
4r	.
8r	.
8r	.
{8a	{Auf
8b	dem
=3	=3
4cc#	Teich,
8cc#	dem
8dd	re-
8b	|
8dd	-gungs-
=4	=4
4cc#	-lo-
8a}	-sen,}
8r	.
{8a	{weilt
8b	des
=5	=5
4cc#	Mon-
8cc#	-des
8dd	hol-
8ff#	|
8dd	-der
=6	=6
4.cc#}	Glanz,}
{4cc#	{flech-
8b	-tend
=7	=7
4a	sei-
8g#	-ne
4b	blei-
8a	-chen
=8	=8
4g#	Ro-
8f#	-sen
8fn	in
8f#	|
8g#	des
=9	=9
4a	Schil-
8a	-fes
8cc#	Gru2-
8a	|
8cc#	-nen
=10	=10
4.g#}	Kranz,}
{8cc#	{in
8a	|
8cc#	des
=11	=11
4g#	Schil-
8cc#	-fes
8cc#	gru2-
8dd#	|
8ccn	-nen
=12	=12
4cc#}	Kranz.}
8r	.
{4a	{Hir-
8fn	-sche
=13	=13
4f#	wan-
8f#	-deln
4dd	dort
8b	am
=14	=14
4a	Hu2-
8g#}	-gel,}
8r	.
{8g#	{blick-
8a	-en
=15	=15
4b	durch
8cc#	die
4dd	Nacht
8dd	em-
=16	=16
[2.dd	-por;
=17	=17
4.dd]}	|}
{8g#	{manch-
8a	|
8b	-mal
=18	=18
4cc#	regt
8cc#	sich
8dd	das
8b	|
8dd	Ge-
=19	=19
4cc#	-flu2-
8a	-gel
8g#	tra2u-
8a	|
8b	-me-
=20	=20
4cc#	-risch
8cc#	im
8dd	tie-
8ff#	|
8dd	-fen
=21	=21
4.cc#}	Rohr,}
8r	.
8r	.
{8a	{im
=22	=22
[4.a	tie-
8a]	|
8b	|
8gn	-fen
=23	=23
4.f#	Rohr,
8.f#	tra2u-
16f#	-me-
[8f#	-risch
=24	=24
8f#]	|
8r	.
8f#	im
8f#	tie-
8g#	|
8fn	-fen
=25	=25
4.f#}	Rohr.}
4r	.
8r	.
=26	=26
2.r	.
=27	=27
4r	.
8r	.
{4fn	{Wei-
8f	-nend
=28	=28
4f#	muss
8f#	mein
8a	Blick
8g#	|
8f#	sich
=29	=29
4f#	sen-
8g#}	-ken;}
8r	.
{8g#	{durch
8g#	die
=30	=30
4a	tief-
8a	-ste
8cc#	See-
8b	|
8a#	-le
=31	=31
4a#	geht,
[8b	|
8b]}	|}
{8b	{durch
8b	die
=32	=32
4ccn	tief-
8cc	-ste
8ff#	See-
8dd#	|
8cc	-le
=33	=33
4.ccn	geht
[4.cc#	|
=34	=34
4cc#]	|
8b}	|
{4a#	{mie
8a#	ein
=35	=35
*k[f#c#g#d#a#e#]	*
4a#	su2-
8g#	-sses
4cc#	Dein-
8cc#	-ge-
=36	=36
4cc#	-den-
8f#}	-ken,}
8r	.
{8b	wie
8b	ein
=37	=37
8b	stil-
8a#	|
8g#	-les
8f#	Nacht-
8dd#	|
8b	-ge-
=38	=38
4.a#}	-bet;}
{4a#	{mir
8a#	ein
=39	=39
4a#	su2-
8g#	-sses
4cc#	Dein-
8cc#	-ge-
=40	=40
4.cc#	-den-
8f#}	-ken,}
8r	.
8r	.
=41	=41
{4.b	wie
4.b	ein
=42	=42
[2.b	stil-
=43	=43
4b]	|
8a#	-les,
8g#	wie
8f#	|
8d#	ein
=44	=44
4c#	stil-
8en	-les
4a#	Nacht
8g#	ge-
=45	=45
4.f#}	-bet,}
8r	.
8r	.
{8a#	{ein
=46	=46
4a#	su2-
8a#	-sses
4a#	Dein
8g#	ge
=47	=47
4g#	den-
8f#	-ken,
8r	.
8f#	wie
8f#	ein
=48	=48
4f#	stil-
8f#	-les
8f#	Nacht
8g#	|
8e#	ge-
=49	=49
[4.f#	-bet.
4f#]}	|}
8r	.
==	==
*-	*-
